public/assets/icon_order.svg

<svg width="25" height="25" viewBox="0 0 25 25"
    xmlns="http://www.w3.org/2000/svg">
    <path d="M22.5815 6.07383L16.4879 0.2146C16.3457 0.0777832 16.1515 0 15.9492 0H5.28516C4.02512 0 3 0.985693 3 2.19727V22.8027C3 24.0143 4.02512 25 5.28516 25H20.5195C21.7796 25 22.8047 24.0143 22.8047 22.8027V6.5918C22.8047 6.39209 22.7175 6.20454 22.5815 6.07383ZM16.7109 2.50063L20.204 5.85938H17.4727C17.0526 5.85938 16.7109 5.53081 16.7109 5.12695V2.50063ZM20.5195 23.5352H5.28516C4.86514 23.5352 4.52344 23.2066 4.52344 22.8027V2.19727C4.52344 1.79341 4.86514 1.46484 5.28516 1.46484H15.1875V5.12695C15.1875 6.33853 16.2126 7.32422 17.4727 7.32422H21.2812V22.8027C21.2812 23.2066 20.9395 23.5352 20.5195 23.5352Z" />
    <path d="M17.4727 10.3516H8.33203C7.91136 10.3516 7.57031 10.6795 7.57031 11.084C7.57031 11.4885 7.91136 11.8164 8.33203 11.8164H17.4727C17.8933 11.8164 18.2344 11.4885 18.2344 11.084C18.2344 10.6795 17.8933 10.3516 17.4727 10.3516Z" />
    <path d="M17.4727 13.2812H8.33203C7.91136 13.2812 7.57031 13.6092 7.57031 14.0137C7.57031 14.4182 7.91136 14.7461 8.33203 14.7461H17.4727C17.8933 14.7461 18.2344 14.4182 18.2344 14.0137C18.2344 13.6092 17.8933 13.2812 17.4727 13.2812Z" />
    <path d="M17.4727 16.2109H8.33203C7.91136 16.2109 7.57031 16.5389 7.57031 16.9434C7.57031 17.3479 7.91136 17.6758 8.33203 17.6758H17.4727C17.8933 17.6758 18.2344 17.3479 18.2344 16.9434C18.2344 16.5389 17.8933 16.2109 17.4727 16.2109Z" />
    <path d="M14.4258 19.1406H8.33203C7.91136 19.1406 7.57031 19.4686 7.57031 19.873C7.57031 20.2775 7.91136 20.6055 8.33203 20.6055H14.4258C14.8465 20.6055 15.1875 20.2775 15.1875 19.873C15.1875 19.4686 14.8465 19.1406 14.4258 19.1406Z" />
</svg>

<svg width="25" height="25" xmlns="http://www.w3.org/2000/svg"><path d="M22.581 6.074L16.488.214A.778.778 0 0015.949 0H5.285C4.025 0 3 .986 3 2.197v20.606C3 24.014 4.025 25 5.285 25H20.52c1.26 0 2.285-.986 2.285-2.197V6.592c0-.2-.087-.387-.224-.518zM16.711 2.5l3.493 3.358h-2.731c-.42 0-.762-.328-.762-.732V2.501zm3.809 21.034H5.285c-.42 0-.762-.328-.762-.732V2.197c0-.404.342-.732.762-.732h9.902v3.662c0 1.212 1.026 2.197 2.286 2.197h3.808v15.479c0 .404-.341.732-.761.732z"/><path d="M17.473 10.352H8.332c-.42 0-.762.328-.762.732 0 .405.341.732.762.732h9.14c.421 0 .762-.328.762-.732 0-.404-.34-.732-.761-.732zM17.473 13.281H8.332c-.42 0-.762.328-.762.733 0 .404.341.732.762.732h9.14c.421 0 .762-.328.762-.732 0-.405-.34-.733-.761-.733zM17.473 16.21H8.332c-.42 0-.762.329-.762.733 0 .405.341.733.762.733h9.14c.421 0 .762-.328.762-.733 0-.404-.34-.732-.761-.732zM14.426 19.14H8.332c-.42 0-.762.329-.762.733 0 .404.341.732.762.732h6.094c.42 0 .761-.328.761-.732 0-.404-.34-.732-.761-.732z"/></svg>
